X:8227
T:Johnstons Hornpipe
M:C|
L:1/8
S:De Dannan: Anthem
R:Hornpipe (swing)
Z:Transcribed by Dan G. Petersen
K:D
dB|"D"A2 dA "G#dim"^GABG|"D"A2 dA "G#dim"^GABG|"D"ABcB AGFG|"A"AGFG "A7"
E2 dB|!
"D"A2 dA "G#dim"^GABG|"D"A2 dA "G#dim"^GABG|"D"ABcB AGFG|"A"(3EEE EF D2:
|!
dc|"Bm"Bcde fBBf|"Gdim"geeg "Bm"fBBd|"F#"(3ccc F2 (3ccc F2|cc_Bc fedc|!
"Bm"Bcde fBBf|"Gdim"geeg "Bm"fBBd|"F#"cF (3FFF cc_Bc| fedc "Bm"B2:|!
ag|"D"f2 de f2 de|fdad bdad|"A"(3cBA eA fAeA|(3cBA eg bage|!
"D"f2 de f2 de|fdad bdad|"A"(3cde ga bage| "D"d2 f2 d2:|!
